X:104
T:104 Untitled Waltz
C:Welch MS
I:abc2nwc
M:3/8
L:1/16
K:C
(3gag f2d2|e4c2|def2a2|g4e2| (3gag f2d2|e4c2|Bc d2B2|c6|
 (3gag f2d2|e4c2|def2a2|g4e2| (3gag f2d2|e4c2|Bcd2B2|c6||
Bcd2B2|c4e2|def2a2|g4e2| (3gag f2d2|e4c2|Bcd2B2|c6|
Bcd2B2|c4e2|def2a2|g4e2| (3gag f2d2|e4c2|Bcd2B2|c6|]

